X: 9194
T: Daly's Mill
R: polka
M: 2/4
K: Amajor
|:c/B/|Ac ef|ec c/d/c/B/|Ac ef|e2 e>c|
Ac ef|ec c/d/c/B/|AF FE|A3:|
e/|:fe c/d/c/B/|AF F/G/E|AE Ac|e2 ec/e/|
fe c/d/c/B/|AF F/G/E|Ac Bc|1 AE Ae:|2 AE Ac/B/||

